neru-light-classic/22x22/actions/attention.svg

<svg xmlns="http://www.w3.org/2000/svg" width="22" height="22" version="1.1">
 <defs>
  <style id="current-color-scheme" type="text/css">
   .ColorScheme-Text { color:#1e333d; } .ColorScheme-Highlight { color:#3fb7ff; }
  </style>
 </defs>
 <path style="fill:currentColor" class="ColorScheme-Text" d="M 10.953125 2.9941406 A 0.92705394 0.93778191 0 0 0 10.199219 3.4628906 L 6.1660156 10.53125 L 2.1308594 17.597656 A 0.92705394 0.93778191 0 0 0 2.9355469 19.005859 L 11.001953 19.005859 L 19.070312 19.005859 A 0.92705394 0.93778191 0 0 0 19.871094 17.597656 L 15.839844 10.53125 L 11.804688 3.4628906 A 0.92705394 0.93778191 0 0 0 10.953125 2.9941406 z M 10 7 L 12 7 L 12 13 L 10 13 L 10 7 z M 10 15 L 12 15 L 12 17 L 10 17 L 10 15 z"/>
</svg>

<svg xmlns="http://www.w3.org/2000/svg" width="22" height="22"><defs><style id="current-color-scheme" type="text/css"></style></defs><path d="M10.953 2.994a.927.938 0 0 0-.754.469L6.166 10.53l-4.035 7.067a.927.938 0 0 0 .805 1.408H19.07a.927.938 0 0 0 .801-1.408L15.84 10.53l-4.035-7.068a.927.938 0 0 0-.852-.469zM10 7h2v6h-2V7zm0 8h2v2h-2v-2z" fill="currentColor" color="#1e333d"/></svg>
